X: 8
T:Wully Honey
M:9/8
L:1/8
S:Caledonian Pocket Companion
Z:ps
K:C
cGG G2G cAA|cGG G2G c3|cGG G2G cAA|B2c d/e/fd c2||
e| de/f/g G2c AFe|de/f/g G2G f2e| de/f/g G2c AFc |B2 c d/e/fd c2||
g|ecG EGc AFg|ecG EGc f2g|ecG EGc AFc|B2c d/e/fd c2||
g|ecg ecg fda|ecg fca g2 c'|ecg ecg fda|gfe dcB c2||
G|E2 GGA/B/c AFc|E2G GAB |ce/f/g| E2G GA/B/c AFa|g2f efd c2||
e|a2 G EGA cAa| g2G Aca g2e|f2e age dcd|e2G AdB c2||
G|E/F/GG E/F/GG cAA|E/F/GG E/F/GG ce/f/g|EGG EGG cAA|A2c d/e/fd c2||
e|de/f/g  G2c AFe |de/f/g G2G f2e |de/f/g G2c AFa|B2c d/e/fd c2||
